rospo-icon-theme-classic-common/64x64/apps/dmd-doc.svg

<svg height="64" width="64" xmlns="http://www.w3.org/2000/svg"><rect height="56" opacity=".2" rx="2.875" ry="2.8" transform="matrix(0 -1 -1 0 0 0)" width="46" x="-56" y="-60"/><rect fill="#c52f2f" height="56" rx="2.875" ry="2.8" transform="matrix(0 -1 -1 0 0 0)" width="46" x="-55" y="-60"/><circle cx="51" cy="21" opacity=".2" r="3"/><path d="m4 35v17.124998c0 1.59275 1.2488 2.875 2.8 2.875h50.4c1.5512 0 2.8-1.28225 2.8-2.875v-7.56653c-17.17975-6.237258-42.052083-9.454112-56-9.558468z" opacity=".2"/><path d="m48.007974 28c0 4.418276-3.646844 8-8.145454 8-1.161054 0-2.26537-.238584-3.2649-.668556-2.873232-1.235994-1.3327-3.438576-1.3327-6.716532 0-1.535194-3.107568-3.584298-2.344244-4.802336 1.43352-2.287466 4.006338-3.812576 6.941844-3.812576 4.49861 0 8.145454 3.581724 8.145454 8z" opacity=".2"/><path d="m48.007974 27c0 4.418276-3.646844 8-8.145454 8-1.161054 0-2.26537-.238584-3.2649-.668556-2.873232-1.235994-1.3327-3.438576-1.3327-6.716532 0-1.535194-3.107568-3.584298-2.344244-4.802336 1.43352-2.287466 4.006338-3.812576 6.941844-3.812576 4.49861 0 8.145454 3.581724 8.145454 8z" fill="#ff783e"/><circle cx="51" cy="20" fill="#ffba46" r="3"/><path d="m11.363636 18.000006c-.755454 0-1.363636.608182-1.363636 1.363636v27.272722c0 .755454.608182 1.363636 1.363636 1.363636h2.338424.388849 11.297939c.0302 0 .05576-.02024.08522-.02398 8.08927-.25578 14.517036-6.88271 14.525932-14.976016-.005072-8.107432-6.451348-14.743617-14.55522-14.984017-.0196-.001622-.03608-.015987-.05594-.015987h-11.297939-.388849zm5.636364 6.999994h7.599274c5.400726 0 8.400728 2.728196 8.400726 8.000004 0 5.271808-3 7.999996-8.400726 7.999996h-7.599274z" opacity=".2"/><path d="m11.363636 17.000006c-.755454 0-1.363636.608182-1.363636 1.363636v27.272722c0 .755454.608182 1.363636 1.363636 1.363636h2.338424.388849 11.297939c.0302 0 .05576-.02024.08522-.02398 8.08927-.25578 14.517036-6.88271 14.525932-14.976016-.005072-8.107432-6.451348-14.743617-14.55522-14.984017-.0196-.001622-.03608-.015987-.05594-.015987h-11.297939-.388849zm5.636364 6.999994h7.599274c5.400726 0 8.400728 2.728196 8.400726 8.000004 0 5.271808-3 7.999996-8.400726 7.999996h-7.599274z" fill="#fff"/><path d="m6.8007812 9c-1.5512 0-2.8007812 1.28225-2.8007812 2.875v1c0-1.59275 1.2495812-2.875 2.8007812-2.875h50.3984378c1.5512 0 2.800781 1.28225 2.800781 2.875v-1c0-1.59275-1.249581-2.875-2.800781-2.875z" fill="#fff" opacity=".2"/></svg>

<svg xmlns="http://www.w3.org/2000/svg" width="64" height="64" version="1">
 <rect style="opacity:0.2" width="46" height="56" x="-56" y="-60" rx="2.875" ry="2.8" transform="matrix(0,-1,-1,0,0,0)"/>
 <rect width="46" height="56" x="-55" y="-60" rx="2.875" ry="2.8" transform="matrix(0,-1,-1,0,0,0)" style="fill:#c52f2f"/>
 <circle style="opacity:0.2" cx="51" cy="21" r="3"/>
 <path style="opacity:0.2" d="m 4,35 0,17.124998 c 0,1.59275 1.2488,2.875 2.8,2.875 l 50.4,0 c 1.5512,0 2.8,-1.28225 2.8,-2.875 l 0,-7.56653 C 42.82025,38.32121 17.947917,35.104356 4,35 Z"/>
 <path d="m 48.007974,28 c 0,4.418276 -3.646844,8 -8.145454,8 -1.161054,0 -2.26537,-0.238584 -3.2649,-0.668556 -2.873232,-1.235994 -1.3327,-3.438576 -1.3327,-6.716532 0,-1.535194 -3.107568,-3.584298 -2.344244,-4.802336 C 34.354196,21.52511 36.927014,20 39.86252,20 c 4.49861,0 8.145454,3.581724 8.145454,8 z" style="opacity:0.2"/>
 <path style="fill:#ff783e" d="m 48.007974,27 c 0,4.418276 -3.646844,8 -8.145454,8 -1.161054,0 -2.26537,-0.238584 -3.2649,-0.668556 -2.873232,-1.235994 -1.3327,-3.438576 -1.3327,-6.716532 0,-1.535194 -3.107568,-3.584298 -2.344244,-4.802336 C 34.354196,20.52511 36.927014,19 39.86252,19 c 4.49861,0 8.145454,3.581724 8.145454,8 z"/>
 <circle cx="51" cy="20" r="3" style="fill:#ffba46"/>
 <path d="M 11.363636,18.000006 C 10.608182,18.000006 10,18.608188 10,19.363642 l 0,27.272722 C 10,47.391818 10.608182,48 11.363636,48 l 2.338424,0 0.388849,0 11.297939,0 c 0.0302,0 0.05576,-0.02024 0.08522,-0.02398 C 33.563338,47.72024 39.991104,41.09331 40,33.000004 39.994928,24.892572 33.548652,18.256387 25.44478,18.015987 25.42518,18.014365 25.4087,18 25.38884,18 l -11.297939,0 -0.388849,0 z M 17,25 24.599274,25 C 30,25 33.000002,27.728196 33,33.000004 33,38.271812 30,41 24.599274,41 L 17,41 Z" style="opacity:0.2"/>
 <path style="fill:#ffffff" d="M 11.363636,17.000006 C 10.608182,17.000006 10,17.608188 10,18.363642 l 0,27.272722 C 10,46.391818 10.608182,47 11.363636,47 l 2.338424,0 0.388849,0 11.297939,0 c 0.0302,0 0.05576,-0.02024 0.08522,-0.02398 C 33.563338,46.72024 39.991104,40.09331 40,32.000004 39.994928,23.892572 33.548652,17.256387 25.44478,17.015987 25.42518,17.014365 25.4087,17 25.38884,17 l -11.297939,0 -0.388849,0 z M 17,24 24.599274,24 C 30,24 33.000002,26.728196 33,32.000004 33,37.271812 30,40 24.599274,40 L 17,40 Z"/>
 <path style="opacity:0.2;fill:#ffffff" d="M 6.8007812 9 C 5.2495812 9 4 10.28225 4 11.875 L 4 12.875 C 4 11.28225 5.2495812 10 6.8007812 10 L 57.199219 10 C 58.750419 10 60 11.28225 60 12.875 L 60 11.875 C 60 10.28225 58.750419 9 57.199219 9 L 6.8007812 9 z"/>
</svg>
